X:1
T:Sheath and Knife
M:4/4
L:1/8
K:G
 z4 z2 G3/2 A/2| B2 A3/2 B/2 G2 GB| AG AB G2 B3/2- c/2| d2e-f g2 de/2-f/2|\
 g2f-d e2 B3/2 c/2| d2 ef g2 d3/2 f/2| g2 fd ed d3/2 B/2| G2 B3/2 c/2 d2e/2-d/2 c|\
 B3/2 c/2 A2 G2 z2|
